FINK
CUT[SAG BRUDER WAS IST DIR]
REG[Europa, Mitteleuropa, Deutschland]
KEY[F0509  16  G 2/4]
MEL[-5_  1__-5_1_  3_3_1_
    3_  5__5_5_  5_4_3_
    2_  1_1_-5_1_  3__1_
    3_  5_5_5_5_  5_4_30
    2_  1__-5_1_  3__1_
    3_  5__5__  5_4_3_
    2_  1__-5_1_  3__1_
    3_  5__5_5_  5__0_
    3_  2_1_-7_1_  2__0_
    3_  2_1_-7_1_  2__0_
    -5_  1_2_3_4_  5_.65_
    4_  3_2_3_4_  5_.65_
    4_  3_2_3_4_  5_0_
    6__  5_4_3_2_  1__0_ //] >>
FCT[Studenten -, Trink - Lied]
